X:300
T: MEIN FEINES LIEB VERLIESS MIT MIR
N: Z0298
O: Europa, Mitteleuropa, Deutschland
R: Lyrisches Lied, Romanze, verlassene Liebe
M: 6/4
L: 1/4
K: B
f | B2=dc2e | =d2cB2
f | =g2fe2f | e2=dc2
f | =g2fe2f | e2=dc2
c | =d2cB2c | =d2ef2
f | =a2=gf2e | =g2fe3 | =d3-^d2
f | B2c=d2e | f3-f2
f | B2c=d2e | f3-f2
f | =g2ec2e | f2=dc3 | B3-B2

